docs/themes/v2/source/images/design/alert-icon.svg

<svg fill="none" height="14" viewBox="0 0 12 14" width="12" xmlns="http://www.w3.org/2000/svg"><path d="m5.93867 2.77477c2.77761 0 5.02923 2.25167 5.02923 5.02928v3.67345c0 .1338-.0531.2621-.1477.3567s-.223.1478-.3568.1478h-9.04951c-.1338 0-.26212-.0532-.35673-.1478-.094617-.0946-.14777-.2229-.14777-.3567v-3.67345c0-2.77761 2.25167-5.02928 5.02928-5.02928zm-.44144-2.77477h.88288c.03345 0 .06553.0132883.08918.0369415.02366.0236532.03695.0557339.03695.0891845v1.513514c0 .03345-.01329.06553-.03695.08918-.02365.02366-.05573.03695-.08918.03695h-.88288c-.03345 0-.06553-.01329-.08919-.03695-.02365-.02365-.03694-.05573-.03694-.08918v-1.513514c0-.0334506.01329-.0655313.03694-.0891845.02366-.0236532.05574-.0369415.08919-.0369415zm-4.836151 1.94959c.011714-.01172.025624-.02103.040935-.02737.015312-.00635.031724-.00962.048299-.00962s.032987.00327.048299.00962c.015311.00634.029222.01565.040935.02737l1.070183 1.07018c.02363.02366.03691.05572.03691.08916s-.01328.0655-.03691.08916l-.62433.62432c-.02365.02364-.05572.03691-.08915.03691-.03344 0-.06551-.01327-.08916-.03691l-1.0701777-1.07018c-.0236354-.02365-.0369123-.05572-.0369123-.08916 0-.03343.0132769-.0655.0369123-.08915l.6243237-.62433zm10.556721 0 .6244.62433c.0235.02364.0368.05568.0368.08908 0 .03339-.0133.06543-.0368.08907l-1.0702 1.0705c-.0117.01172-.0256.02103-.041.02737-.0153.00635-.0317.00962-.0483.00962-.0165 0-.0329-.00327-.0483-.00962-.0153-.00634-.0292-.01565-.0409-.02737l-.62431-.62433c-.01173-.01171-.02103-.02562-.02738-.04093s-.00961-.03173-.00961-.0483c0-.01658.00326-.03299.00961-.0483s.01565-.02922.02738-.04094l1.07031-1.07018c.0237-.02363.0557-.03691.0892-.03691.0334 0 .0655.01328.0891.03691zm-10.324176 11.04141h10.090076c.1338 0 .2621.0531.3568.1478.0946.0946.1477.2229.1477.3567v.3784c0 .0334-.0133.0655-.0369.0892-.0237.0236-.0558.0369-.0892.0369h-10.846854c-.033451 0-.065532-.0133-.089185-.0369-.023653-.0237-.036942-.0558-.036942-.0892v-.3784c0-.1338.053154-.2621.147766-.3567.094613-.0947.222936-.1478.356739-.1478zm2.333336-4.99776v3.98876h1.00901v-3.98876z" fill="#ff7557"/></svg>

<svg width="12" height="14" viewBox="0 0 12 14" fill="none" xmlns="http://www.w3.org/2000/svg">
<path d="M5.93867 2.77477C8.71628 2.77477 10.9679 5.02644 10.9679 7.80405V11.4775C10.9679 11.6113 10.9148 11.7396 10.8202 11.8342C10.7256 11.9288 10.5972 11.982 10.4634 11.982H1.41389C1.28009 11.982 1.15177 11.9288 1.05716 11.8342C0.962543 11.7396 0.90939 11.6113 0.90939 11.4775V7.80405C0.90939 5.02644 3.16106 2.77477 5.93867 2.77477ZM5.49723 0H6.38011C6.41356 0 6.44564 0.0132883 6.46929 0.0369415C6.49295 0.0605947 6.50624 0.0926754 6.50624 0.126126V1.63964C6.50624 1.67309 6.49295 1.70517 6.46929 1.72882C6.44564 1.75248 6.41356 1.76577 6.38011 1.76577H5.49723C5.46378 1.76577 5.4317 1.75248 5.40804 1.72882C5.38439 1.70517 5.3711 1.67309 5.3711 1.63964V0.126126C5.3711 0.0926754 5.38439 0.0605947 5.40804 0.0369415C5.4317 0.0132883 5.46378 0 5.49723 0ZM0.661079 1.94959C0.672793 1.93787 0.686703 1.92856 0.702014 1.92222C0.717326 1.91587 0.733738 1.9126 0.750313 1.9126C0.766888 1.9126 0.7833 1.91587 0.798612 1.92222C0.813923 1.92856 0.827834 1.93787 0.839547 1.94959L1.90973 3.01977C1.93336 3.04343 1.94664 3.07549 1.94664 3.10893C1.94664 3.14237 1.93336 3.17443 1.90973 3.19809L1.2854 3.82241C1.26175 3.84605 1.22968 3.85932 1.19625 3.85932C1.16281 3.85932 1.13074 3.84605 1.10709 3.82241L0.0369123 2.75223C0.0132769 2.72858 0 2.69651 0 2.66307C0 2.62964 0.0132769 2.59757 0.0369123 2.57392L0.661236 1.94959H0.661079ZM11.2178 1.94959L11.8422 2.57392C11.8657 2.59756 11.879 2.6296 11.879 2.663C11.879 2.69639 11.8657 2.72843 11.8422 2.75207L10.772 3.82257C10.7603 3.83429 10.7464 3.8436 10.731 3.84994C10.7157 3.85629 10.6993 3.85956 10.6827 3.85956C10.6662 3.85956 10.6498 3.85629 10.6344 3.84994C10.6191 3.8436 10.6052 3.83429 10.5935 3.82257L9.96919 3.19824C9.95746 3.18653 9.94816 3.17262 9.94181 3.15731C9.93546 3.142 9.9322 3.12558 9.9322 3.10901C9.9322 3.09243 9.93546 3.07602 9.94181 3.06071C9.94816 3.0454 9.95746 3.03149 9.96919 3.01977L11.0395 1.94959C11.0632 1.92596 11.0952 1.91268 11.1287 1.91268C11.1621 1.91268 11.1942 1.92596 11.2178 1.94959ZM0.893624 12.991H10.9837C11.1175 12.991 11.2458 13.0441 11.3405 13.1388C11.4351 13.2334 11.4882 13.3617 11.4882 13.4955V13.8739C11.4882 13.9073 11.4749 13.9394 11.4513 13.9631C11.4276 13.9867 11.3955 14 11.3621 14H0.515246C0.481795 14 0.449714 13.9867 0.426061 13.9631C0.402408 13.9394 0.389119 13.9073 0.389119 13.8739V13.4955C0.389119 13.3617 0.442273 13.2334 0.536885 13.1388C0.631498 13.0441 0.759821 12.991 0.893624 12.991ZM3.22696 7.99324V11.982H4.23597V7.99324H3.22696Z" fill="#FF7557"/>
</svg>
